X: 20543
M: 6/8
L: 1/8
K: D
dfe dcd | ecA ABc | d2d f2a | gfg e2A |\
dfe dcd | ecA ABc | dfa age | edd d2 :|
|: A |\
gfg e^de | cBc ABc | def gBe | (dcB) A2A |\
gfg e^de | cBc ABc | dfa age | edd d2 :|


